X: 11395
T: Earthsongs
R: reel
M: 4/4
K: Ddorian
AG|:ADDC DEFG|AddB cBAG|ADDC DEFG|AA,A,G, A,2 AG|
ADDC DEFG|AddB cB (3ABc|dBcA BGAF|GECE D2zG|
AddB cBAG|Aaag fedc|dDDC DEFG|AA,A,G, A,2zG|
AddB cBAG|Aaag fedc|dDDC DEFG|AGEC D2 z G|
[K:Ador]Aeed cBAG|ABcd e2 ed|eaaf gfed|eA z A z A z E|
AEBE cEdE|egfd e2 (3efg|afge fdec|dBGB A2 z G|
Aeed cBAG|ABcd e2 ed|eaaf gfed|eA z A z A z E|
AEBE cEdE|egfd e2 (3efg|afge fdec|dBGB A2 AG:|

